// sc-140 track #02 - LFSaw
// original code

{Splay.ar(Ringz.ar(Impulse.ar([2, 1, 4], [0.1, 0.11, 0.12]), [0.1, 0.1, 0.5])) * EnvGen.kr(Env([1, 1, 0], [120, 10]), doneAction: 2)}.play


// rewritten for readability


// analysis


// signal path graph


// interesting modifications


// variation
